exports/age-standardized-death-rate-by-cause_v1_850x600.svg

<svg xmlns="http://www.w3.org/2000/svg" version="1.1" style="background-color:#fff;-webkit-font-smoothing:antialiased" width="850" height="600" font-family="'Helvetica Neue',Helvetica,Arial,sans-serif" font-size="18" text-rendering="optimizeLegibility"><g class="ChartTab"><g class="HeaderView"><g opacity=".8" transform="matrix(.31 0 0 .31 770 15)"><a xmlns:xlink="http://www.w3.org/1999/xlink" xlink:href="https://ourworldindata.org" target="_blank"><g><path fill="#1B2543" d="M0 0h211.2v130.1H0z"/><path fill="#E63912" d="M0 112.2h211.2v17.9H0z"/><g><path fill="none" d="M1.2 12.3h210.2v99.2H1.2z"/><path fill="#FFF" d="M37.8 32.2c0 12.7-7.7 19.4-17.1 19.4-9.7 0-16.6-7.5-16.6-18.7 0-11.7 7.3-19.3 17.1-19.3 10.1.1 16.6 7.7 16.6 18.6zm-28.6.6c0 7.9 4.3 14.9 11.8 14.9 7.5 0 11.8-6.9 11.8-15.3 0-7.3-3.8-14.9-11.8-14.9-7.9 0-11.8 7.3-11.8 15.3zM62.7 43.8c0 2.7.1 5.1.2 7.2h-4.3l-.3-4.3h-.1c-1.3 2.1-4 4.9-8.8 4.9-4.2 0-9.1-2.3-9.1-11.6V24.6h4.8v14.6c0 5 1.5 8.4 5.9 8.4 3.2 0 5.5-2.2 6.3-4.4.3-.7.4-1.6.4-2.5V24.6h4.8v19.2zM67.3 32.8c0-3.1-.1-5.8-.2-8.2h4.2l.2 5.2h.2c1.2-3.5 4.1-5.8 7.3-5.8.5 0 .9.1 1.4.2v4.5c-.5-.1-1-.2-1.6-.2-3.4 0-5.8 2.6-6.5 6.2-.1.7-.2 1.4-.2 2.2V51h-4.8V32.8zM95.4 51L86 14.2h5l4.4 18.6c1.1 4.6 2.1 9.2 2.7 12.7h.1c.6-3.7 1.8-8 3-12.8l4.9-18.5h5l4.5 18.7c1 4.4 2 8.7 2.6 12.6h.1c.8-4 1.8-8.1 3-12.7l4.9-18.5h4.9L120.6 51h-5L111 31.9c-1.1-4.7-1.9-8.3-2.4-12h-.1c-.7 3.7-1.5 7.3-2.8 12L100.4 51h-5zM154.9 37.6c0 9.8-6.8 14-13.2 14-7.2 0-12.7-5.2-12.7-13.6 0-8.8 5.8-14 13.1-14 7.7 0 12.8 5.5 12.8 13.6zm-21 .3c0 5.8 3.3 10.1 8 10.1 4.6 0 8-4.3 8-10.3 0-4.5-2.2-10.1-7.9-10.1s-8.1 5.2-8.1 10.3zM158.2 32.8c0-3.1-.1-5.8-.2-8.2h4.2l.2 5.2h.2c1.2-3.5 4.1-5.8 7.3-5.8.5 0 .9.1 1.4.2v4.5c-.5-.1-1-.2-1.6-.2-3.4 0-5.8 2.6-6.5 6.2-.1.7-.2 1.4-.2 2.2V51h-4.8V32.8zM173.5 12.3h4.8V51h-4.8V12.3zM206.5 12.3v31.9c0 2.3.1 5 .2 6.8h-4.3l-.2-4.6h-.2c-1.5 2.9-4.7 5.2-9 5.2-6.4 0-11.3-5.4-11.3-13.4-.1-8.8 5.4-14.2 11.9-14.2 4 0 6.8 1.9 8 4h.1V12.3h4.8zm-4.8 23.1c0-.6-.1-1.4-.2-2a7 7 0 00-6.9-5.6c-5 0-7.9 4.4-7.9 10.2 0 5.3 2.6 9.8 7.8 9.8 3.2 0 6.2-2.1 7.1-5.7.2-.7.2-1.3.2-2.1v-4.6zM42.8 64c.1 1.6-1.1 2.9-3.1 2.9-1.7 0-2.9-1.3-2.9-2.9 0-1.7 1.3-3 3-3 1.9 0 3 1.3 3 3zm-5.4 33.8V71.4h4.8v26.4h-4.8zM47.5 78.6c0-2.7-.1-5-.2-7.1h4.3l.3 4.4h.1c1.3-2.5 4.4-5 8.8-5 3.7 0 9.4 2.2 9.4 11.2v15.8h-4.8V82.6c0-4.3-1.6-7.8-6.1-7.8-3.2 0-5.6 2.2-6.5 4.9-.2.6-.3 1.4-.3 2.2v15.9h-4.8V78.6zM84 61.6c2.9-.4 6.3-.8 10.1-.8 6.8 0 11.7 1.6 14.9 4.6 3.3 3 5.2 7.3 5.2 13.2 0 6-1.9 10.9-5.3 14.3-3.4 3.4-9.1 5.3-16.3 5.3-3.4 0-6.2-.2-8.6-.4V61.6zm4.8 32.5c1.2.2 3 .3 4.8.3 10.2 0 15.7-5.7 15.7-15.6.1-8.7-4.9-14.2-14.9-14.2-2.5 0-4.3.2-5.6.5v29zM132.1 97.8l-.4-3.3h-.2a9.79 9.79 0 01-8.1 3.9c-5.4 0-8.1-3.8-8.1-7.6 0-6.4 5.7-9.9 15.9-9.8v-.5c0-2.2-.6-6.1-6-6.1-2.5 0-5 .8-6.9 2l-1.1-3.2c2.2-1.4 5.4-2.3 8.7-2.3 8.1 0 10.1 5.5 10.1 10.8v9.9c0 2.3.1 4.5.4 6.3h-4.3zm-.7-13.4c-5.3-.1-11.2.8-11.2 5.9 0 3.1 2.1 4.6 4.5 4.6 3.4 0 5.6-2.2 6.4-4.4.2-.5.3-1 .3-1.5v-4.6zM146.6 63.9v7.6h6.9v3.7h-6.9v14.2c0 3.3.9 5.1 3.6 5.1 1.3 0 2.2-.2 2.8-.3l.2 3.6c-.9.4-2.4.7-4.3.7-2.2 0-4-.7-5.2-2-1.4-1.4-1.9-3.8-1.9-6.9V75.1h-4.1v-3.7h4.1v-6.3l4.8-1.2zM171.4 97.8l-.4-3.3h-.2a9.79 9.79 0 01-8.1 3.9c-5.4 0-8.1-3.8-8.1-7.6 0-6.4 5.7-9.9 15.9-9.8v-.5c0-2.2-.6-6.1-6-6.1-2.5 0-5 .8-6.9 2l-1.1-3.2c2.2-1.4 5.4-2.3 8.7-2.3 8.1 0 10.1 5.5 10.1 10.8v9.9c0 2.3.1 4.5.4 6.3h-4.3zm-.7-13.4c-5.3-.1-11.2.8-11.2 5.9 0 3.1 2.1 4.6 4.5 4.6 3.4 0 5.6-2.2 6.4-4.4.2-.5.3-1 .3-1.5v-4.6z"/></g></g></a></g><a href="https://ourworldindata.org/grapher/age-standardized-death-rate-by-cause" target="_blank"><text font-size="27" x="15" y="36.6" fill="#555"><tspan x="15" y="36.6">Age-standardized death rate by cause, World</tspan></text></a><text font-size="14.4" x="15" y="55.5" fill="#666"><tspan x="15" y="55.52">Total death rates, measured as the number of deaths per 100,000 individuals. Death rates have been</tspan><tspan x="15" y="71.36">age-standardized to assume a constant age structure of the population to compare between countries and over</tspan><tspan x="15" y="87.2">time. Deaths have been broken down by non-communicable diseases (NCDs) which include cardiovascular</tspan><tspan x="15" y="103.04">diseases, cancers, diabetes and respiratory diseases. Injuries include deaths from accidents, as well as those from</tspan><tspan x="15" y="118.88">homicide, conflict, terrorism and suicide.</tspan></text></g><g class="StackedArea"><defs><clipPath id="a"><path d="M60.82 0h820v832.2h-820z"/></clipPath></defs><g class="AxisBoxView"><g class="HorizontalAxis" fill="#666" text-anchor="middle" font-size="16.2"><text x="60.8" y="556.5">1990</text><text x="182" y="556.5">1995</text><text x="303.1" y="556.5">2000</text><text x="424.2" y="556.5">2005</text><text x="545.4" y="556.5">2010</text><text x="690.7" y="556.5">2016</text></g><g class="VerticalAxis" fill="#666" dominant-baseline="middle" text-anchor="end" font-size="16.2"><text x="55.82" y="535.3">0</text><text x="55.82" y="469.5">200</text><text x="55.82" y="403.7">400</text><text x="55.82" y="337.8">600</text><text x="55.82" y="272">800</text><text x="55.82" y="206.2">1,000</text></g><g class="AxisGridLines"><path stroke="#ccc" d="M60.82 535.3h629.91"/><path stroke="#ddd" stroke-dasharray="3,2" d="M60.82 469.5h629.91M60.82 403.7h629.91M60.82 337.8h629.91M60.82 272h629.91M60.82 206.2h629.91"/></g><g class="AxisGridLines" stroke="#ddd" stroke-dasharray="3,2"><path d="M60.8 535.3V140.4M182 535.3V140.4M303.1 535.3V140.4M424.2 535.3V140.4M545.4 535.3V140.4M666.5 535.3V140.4"/></g></g><g clip-path="url(#a)"><g class="HeightedLegend clickable"><g class="legendMark"><path fill="#ffd53e" d="M695.73 270.65h10v2.5h-10z"/><text font-size="14.4" x="710.7" y="276.2" fill="#333"><tspan x="710.73" y="276.22">Injuries</tspan></text></g><g class="legendMark"><path fill="#ca2628" d="M695.73 308.3h10v2.5h-10z"/><text font-size="14.4" x="710.7" y="290.6" fill="#333"><tspan x="710.73" y="290.62">Communicable,</tspan><tspan x="710.73" y="306.46">maternal, neonatal,</tspan><tspan x="710.73" y="322.3">and nutritional</tspan><tspan x="710.73" y="338.14">diseases</tspan></text></g><g class="legendMark"><path fill="#3360a9" d="M695.73 432.95h10v2.5h-10z"/><text font-size="14.4" x="710.7" y="430.8" fill="#333"><tspan x="710.73" y="430.77">Non-communicable</tspan><tspan x="710.73" y="446.61">diseases (NCDs)</tspan></text></g></g><g class="Areas"><path d="M60.8 265.6l24.3 2h24.2l24.2-1.6 24.2.2 24.3 2.7 24.2 4.1 24.2 3.5 24.2 2.8 24.3 1.2 24.2 2.3 24.2 2.4 24.2 1.7 24.3 4.8 24.2 5.1 24.2 3.2 24.3 5.5 24.2 3.9 24.2 3.2 24.2 3.4 24.3 2.7 24.2 3.8 24.2 2.6 24.2 2.4 24.3 1.8 24.2 2 24.2 1.9.03 202.1H60.83" fill="#3360a9" fill-opacity=".7" class="World_0-area"/><path d="M60.8 169.6l24.3 3.3 24.2 1.1 24.2-.7 24.2 1 24.3 2.9 24.2 5.2 24.2 4.8 24.2 3.9 24.3 2.2 24.2 3.4 24.2 3.6 24.2 3 24.3 6.9 24.2 7.1 24.2 5.2 24.3 8 24.2 6.6 24.2 5.6 24.2 6.1 24.3 5.1 24.2 6.4 24.2 5.1 24.2 4.8 24.3 4.1 24.2 4.3 24.2 3.9v50.7l-24.2-1.9-24.2-2-24.3-1.8-24.2-2.4-24.2-2.6-24.2-3.8-24.3-2.7-24.2-3.4-24.2-3.2-24.2-3.9-24.3-5.5-24.2-3.2-24.2-5.1-24.3-4.8-24.2-1.7-24.2-2.4-24.2-2.3-24.3-1.2-24.2-2.8-24.2-3.5-24.2-4.1-24.3-2.7-24.2-.2-24.2 1.6H85.1l-24.3-2" fill="#ca2628" fill-opacity=".7" class="World_1-area"/><path d="M60.8 140.4l24.3 2.8 24.2 2.1 24.2-1.1 24.2-1.5 24.3 5.8 24.2 5.6 24.2 5.2 24.2 4 24.3 2.2 24.2 4.1 24.2 4.2 24.2 3.2 24.3 7 24.2 6.5 24.2 6.4 24.3 8.8 24.2 7.1 24.2 5 24.2 7.7 24.3 4.4 24.2 7.7 24.2 5.7 24.2 5 24.3 4.2 24.2 4.6 24.2 4.2v21.2l-24.2-3.9-24.2-4.3-24.3-4.1-24.2-4.8-24.2-5.1-24.2-6.4-24.3-5.1-24.2-6.1-24.2-5.6-24.2-6.6-24.3-8-24.2-5.2-24.2-7.1-24.3-6.9-24.2-3-24.2-3.6-24.2-3.4-24.3-2.2-24.2-3.9-24.2-4.8-24.2-5.2-24.3-2.9-24.2-1-24.2.7-24.2-1.1-24.3-3.3" fill="#ffd53e" fill-opacity=".7" class="World_2-area"/><path stroke-linecap="round" d="M60.8 265.6l24.3 2h24.2l24.2-1.6 24.2.2 24.3 2.7 24.2 4.1 24.2 3.5 24.2 2.8 24.3 1.2 24.2 2.3 24.2 2.4 24.2 1.7 24.3 4.8 24.2 5.1 24.2 3.2 24.3 5.5 24.2 3.9 24.2 3.2 24.2 3.4 24.3 2.7 24.2 3.8 24.2 2.6 24.2 2.4 24.3 1.8 24.2 2 24.2 1.9" stroke="#2B508D" stroke-opacity=".7" stroke-width=".5" fill="none" class="World_0-border"/><path stroke-linecap="round" d="M60.8 169.6l24.3 3.3 24.2 1.1 24.2-.7 24.2 1 24.3 2.9 24.2 5.2 24.2 4.8 24.2 3.9 24.3 2.2 24.2 3.4 24.2 3.6 24.2 3 24.3 6.9 24.2 7.1 24.2 5.2 24.3 8 24.2 6.6 24.2 5.6 24.2 6.1 24.3 5.1 24.2 6.4 24.2 5.1 24.2 4.8 24.3 4.1 24.2 4.3 24.2 3.9" stroke="#A92021" stroke-opacity=".7" stroke-width=".5" fill="none" class="World_1-border"/><path stroke-linecap="round" d="M60.8 140.4l24.3 2.8 24.2 2.1 24.2-1.1 24.2-1.5 24.3 5.8 24.2 5.6 24.2 5.2 24.2 4 24.3 2.2 24.2 4.1 24.2 4.2 24.2 3.2 24.3 7 24.2 6.5 24.2 6.4 24.3 8.8 24.2 7.1 24.2 5 24.2 7.7 24.3 4.4 24.2 7.7 24.2 5.7 24.2 5 24.3 4.2 24.2 4.6 24.2 4.2" stroke="#D5B234" stroke-opacity=".7" stroke-width=".5" fill="none" class="World_2-border"/></g></g></g><g class="SourcesFooter" fill="#777"><g class="clickable" fill="#777"><text font-size="12.6" x="15" y="581.6"><tspan x="15" y="581.58">Source: IHME, Global Burden of Disease</tspan></text></g><text font-size="12.6" x="649" y="581.6"><tspan x="649.02" y="581.58"><a target="_blank" href="https://ourworldindata.org" fill="#777">OurWorldInData.org</a> • <a href="http://creativecommons.org/licenses/by-sa/4.0/deed.en_US" target="_blank" fill="#777">CC BY-SA</a></tspan></text></g></g></svg>

<svg xmlns="http://www.w3.org/2000/svg" version="1.1" style="font-family: 'Helvetica Neue', Helvetica, Arial, sans-serif; font-size: 18px; background-color: white; text-rendering: optimizeLegibility; -webkit-font-smoothing: antialiased;" width="850" height="600"><g class="ChartTab"><g class="HeaderView"><g opacity="0.8" transform="translate(770, 15) scale(0.31)"><a xmlns:xlink="http://www.w3.org/1999/xlink" xlink:href="https://ourworldindata.org" target="_blank"><g><rect x="0" y="0" fill="#1B2543" width="211.2" height="130.1"/><rect x="0" y="112.2" fill="#E63912" width="211.2" height="17.9"/><g><rect x="1.2" y="12.3" fill="none" width="210.2" height="99.2"/><path fill="#FFFFFF" d="M37.8,32.2c0,12.7-7.7,19.4-17.1,19.4c-9.7,0-16.6-7.5-16.6-18.7c0-11.7,7.3-19.3,17.1-19.3 C31.3,13.7,37.8,21.3,37.8,32.2z M9.2,32.8c0,7.9,4.3,14.9,11.8,14.9c7.5,0,11.8-6.9,11.8-15.3c0-7.3-3.8-14.9-11.8-14.9 C13.1,17.5,9.2,24.8,9.2,32.8z"/><path fill="#FFFFFF" d="M62.7,43.8c0,2.7,0.1,5.1,0.2,7.2h-4.3l-0.3-4.3h-0.1c-1.3,2.1-4,4.9-8.8,4.9c-4.2,0-9.1-2.3-9.1-11.6 V24.6h4.8v14.6c0,5,1.5,8.4,5.9,8.4c3.2,0,5.5-2.2,6.3-4.4c0.3-0.7,0.4-1.6,0.4-2.5V24.6h4.8V43.8z"/><path fill="#FFFFFF" d="M67.3,32.8c0-3.1-0.1-5.8-0.2-8.2h4.2l0.2,5.2h0.2c1.2-3.5,4.1-5.8,7.3-5.8c0.5,0,0.9,0.1,1.4,0.2v4.5 c-0.5-0.1-1-0.2-1.6-0.2c-3.4,0-5.8,2.6-6.5,6.2c-0.1,0.7-0.2,1.4-0.2,2.2V51h-4.8V32.8z"/><path fill="#FFFFFF" d="M95.4,51l-9.4-36.8h5l4.4,18.6c1.1,4.6,2.1,9.2,2.7,12.7h0.1c0.6-3.7,1.8-8,3-12.8l4.9-18.5h5l4.5,18.7 c1,4.4,2,8.7,2.6,12.6h0.1c0.8-4,1.8-8.1,3-12.7l4.9-18.5h4.9L120.6,51h-5L111,31.9c-1.1-4.7-1.9-8.3-2.4-12h-0.1 c-0.7,3.7-1.5,7.3-2.8,12L100.4,51H95.4z"/><path fill="#FFFFFF" d="M154.9,37.6c0,9.8-6.8,14-13.2,14c-7.2,0-12.7-5.2-12.7-13.6c0-8.8,5.8-14,13.1-14 C149.8,24,154.9,29.5,154.9,37.6z M133.9,37.9c0,5.8,3.3,10.1,8,10.1c4.6,0,8-4.3,8-10.3c0-4.5-2.2-10.1-7.9-10.1 C136.3,27.6,133.9,32.8,133.9,37.9z"/><path fill="#FFFFFF" d="M158.2,32.8c0-3.1-0.1-5.8-0.2-8.2h4.2l0.2,5.2h0.2c1.2-3.5,4.1-5.8,7.3-5.8c0.5,0,0.9,0.1,1.4,0.2v4.5 c-0.5-0.1-1-0.2-1.6-0.2c-3.4,0-5.8,2.6-6.5,6.2c-0.1,0.7-0.2,1.4-0.2,2.2V51h-4.8V32.8z"/><path fill="#FFFFFF" d="M173.5,12.3h4.8V51h-4.8V12.3z"/><path fill="#FFFFFF" d="M206.5,12.3v31.9c0,2.3,0.1,5,0.2,6.8h-4.3l-0.2-4.6H202c-1.5,2.9-4.7,5.2-9,5.2 c-6.4,0-11.3-5.4-11.3-13.4c-0.1-8.8,5.4-14.2,11.9-14.2c4,0,6.8,1.9,8,4h0.1V12.3H206.5z M201.7,35.4c0-0.6-0.1-1.4-0.2-2 c-0.7-3.1-3.3-5.6-6.9-5.6c-5,0-7.9,4.4-7.9,10.2c0,5.3,2.6,9.8,7.8,9.8c3.2,0,6.2-2.1,7.1-5.7c0.2-0.7,0.2-1.3,0.2-2.1V35.4z"/><path fill="#FFFFFF" d="M42.8,64c0.1,1.6-1.1,2.9-3.1,2.9c-1.7,0-2.9-1.3-2.9-2.9c0-1.7,1.3-3,3-3C41.7,61,42.8,62.3,42.8,64z M37.4,97.8V71.4h4.8v26.4H37.4z"/><path fill="#FFFFFF" d="M47.5,78.6c0-2.7-0.1-5-0.2-7.1h4.3l0.3,4.4h0.1c1.3-2.5,4.4-5,8.8-5c3.7,0,9.4,2.2,9.4,11.2v15.8h-4.8 V82.6c0-4.3-1.6-7.8-6.1-7.8c-3.2,0-5.6,2.2-6.5,4.9c-0.2,0.6-0.3,1.4-0.3,2.2v15.9h-4.8V78.6z"/><path fill="#FFFFFF" d="M84,61.6c2.9-0.4,6.3-0.8,10.1-0.8c6.8,0,11.7,1.6,14.9,4.6c3.3,3,5.2,7.3,5.2,13.2c0,6-1.9,10.9-5.3,14.3 c-3.4,3.4-9.1,5.3-16.3,5.3c-3.4,0-6.2-0.2-8.6-0.4V61.6z M88.8,94.1c1.2,0.2,3,0.3,4.8,0.3c10.2,0,15.7-5.7,15.7-15.6 c0.1-8.7-4.9-14.2-14.9-14.2c-2.5,0-4.3,0.2-5.6,0.5V94.1z"/><path fill="#FFFFFF" d="M132.1,97.8l-0.4-3.3h-0.2c-1.5,2.1-4.3,3.9-8.1,3.9c-5.4,0-8.1-3.8-8.1-7.6c0-6.4,5.7-9.9,15.9-9.8v-0.5 c0-2.2-0.6-6.1-6-6.1c-2.5,0-5,0.8-6.9,2l-1.1-3.2c2.2-1.4,5.4-2.3,8.7-2.3c8.1,0,10.1,5.5,10.1,10.8v9.9c0,2.3,0.1,4.5,0.4,6.3 H132.1z M131.4,84.4c-5.3-0.1-11.2,0.8-11.2,5.9c0,3.1,2.1,4.6,4.5,4.6c3.4,0,5.6-2.2,6.4-4.4c0.2-0.5,0.3-1,0.3-1.5V84.4z"/><path fill="#FFFFFF" d="M146.6,63.9v7.6h6.9v3.7h-6.9v14.2c0,3.3,0.9,5.1,3.6,5.1c1.3,0,2.2-0.2,2.8-0.3l0.2,3.6 c-0.9,0.4-2.4,0.7-4.3,0.7c-2.2,0-4-0.7-5.2-2c-1.4-1.4-1.9-3.8-1.9-6.9V75.1h-4.1v-3.7h4.1v-6.3L146.6,63.9z"/><path fill="#FFFFFF" d="M171.4,97.8l-0.4-3.3h-0.2c-1.5,2.1-4.3,3.9-8.1,3.9c-5.4,0-8.1-3.8-8.1-7.6c0-6.4,5.7-9.9,15.9-9.8v-0.5 c0-2.2-0.6-6.1-6-6.1c-2.5,0-5,0.8-6.9,2l-1.1-3.2c2.2-1.4,5.4-2.3,8.7-2.3c8.1,0,10.1,5.5,10.1,10.8v9.9c0,2.3,0.1,4.5,0.4,6.3 H171.4z M170.7,84.4c-5.3-0.1-11.2,0.8-11.2,5.9c0,3.1,2.1,4.6,4.5,4.6c3.4,0,5.6-2.2,6.4-4.4c0.2-0.5,0.3-1,0.3-1.5V84.4z"/></g></g></a></g><a href="https://ourworldindata.org/grapher/age-standardized-death-rate-by-cause" target="_blank"><text font-size="27.00" x="15.0" y="36.6" fill="#555"><tspan x="15" y="36.6">Age-standardized death rate by cause, World</tspan></text></a><text font-size="14.40" x="15.0" y="55.5" fill="#666"><tspan x="15" y="55.519999999999996">Total death rates, measured as the number of deaths per 100,000 individuals. Death rates have been</tspan><tspan x="15" y="71.36">age-standardized to assume a constant age structure of the population to compare between countries and over</tspan><tspan x="15" y="87.2">time. Deaths have been broken down by non-communicable diseases (NCDs) which include cardiovascular</tspan><tspan x="15" y="103.03999999999999">diseases, cancers, diabetes and respiratory diseases. Injuries include deaths from accidents, as well as those from</tspan><tspan x="15" y="118.88">homicide, conflict, terrorism and suicide.</tspan></text></g><g class="StackedArea"><defs><clipPath id="boundsClip-1"><rect x="60.824" y="0" width="820" height="832.2"></rect></clipPath></defs><g class="AxisBoxView"><g class="HorizontalAxis"><text x="60.8" y="556.5" fill="#666" text-anchor="middle" font-size="16.2">1990</text><text x="182" y="556.5" fill="#666" text-anchor="middle" font-size="16.2">1995</text><text x="303.1" y="556.5" fill="#666" text-anchor="middle" font-size="16.2">2000</text><text x="424.2" y="556.5" fill="#666" text-anchor="middle" font-size="16.2">2005</text><text x="545.4" y="556.5" fill="#666" text-anchor="middle" font-size="16.2">2010</text><text x="690.7" y="556.5" fill="#666" text-anchor="middle" font-size="16.2">2016</text></g><g class="VerticalAxis"><text x="55.82" y="535.3" fill="#666" dominant-baseline="middle" text-anchor="end" font-size="16.2">0</text><text x="55.82" y="469.5" fill="#666" dominant-baseline="middle" text-anchor="end" font-size="16.2">200</text><text x="55.82" y="403.7" fill="#666" dominant-baseline="middle" text-anchor="end" font-size="16.2">400</text><text x="55.82" y="337.8" fill="#666" dominant-baseline="middle" text-anchor="end" font-size="16.2">600</text><text x="55.82" y="272" fill="#666" dominant-baseline="middle" text-anchor="end" font-size="16.2">800</text><text x="55.82" y="206.2" fill="#666" dominant-baseline="middle" text-anchor="end" font-size="16.2">1,000</text></g><g class="AxisGridLines"><line x1="60.82" y1="535.3" x2="690.73" y2="535.3" stroke="#ccc"></line><line x1="60.82" y1="469.5" x2="690.73" y2="469.5" stroke="#ddd" stroke-dasharray="3,2"></line><line x1="60.82" y1="403.7" x2="690.73" y2="403.7" stroke="#ddd" stroke-dasharray="3,2"></line><line x1="60.82" y1="337.8" x2="690.73" y2="337.8" stroke="#ddd" stroke-dasharray="3,2"></line><line x1="60.82" y1="272" x2="690.73" y2="272" stroke="#ddd" stroke-dasharray="3,2"></line><line x1="60.82" y1="206.2" x2="690.73" y2="206.2" stroke="#ddd" stroke-dasharray="3,2"></line></g><g class="AxisGridLines"><line x1="60.8" y1="535.30" x2="60.8" y2="140.40" stroke="#ddd" stroke-dasharray="3,2"></line><line x1="182" y1="535.30" x2="182" y2="140.40" stroke="#ddd" stroke-dasharray="3,2"></line><line x1="303.1" y1="535.30" x2="303.1" y2="140.40" stroke="#ddd" stroke-dasharray="3,2"></line><line x1="424.2" y1="535.30" x2="424.2" y2="140.40" stroke="#ddd" stroke-dasharray="3,2"></line><line x1="545.4" y1="535.30" x2="545.4" y2="140.40" stroke="#ddd" stroke-dasharray="3,2"></line><line x1="666.5" y1="535.30" x2="666.5" y2="140.40" stroke="#ddd" stroke-dasharray="3,2"></line></g></g><g clip-path="url(#boundsClip-1)"><g class="HeightedLegend clickable"><g class="legendMark"><rect x="695.728" y="264.7" width="61.51200000000001" height="14.4" fill="#fff" opacity="0"></rect><rect x="695.728" y="270.65" width="10" height="2.5" fill="#ffd53e"></rect><text font-size="14.40" x="710.7" y="276.2" fill="#333"><tspan x="710.728" y="276.21999999999997">Injuries</tspan></text></g><g class="legendMark"><rect x="695.728" y="279.09999999999997" width="138.84000000000003" height="60.9" fill="#fff" opacity="0"></rect><rect x="695.728" y="308.29999999999995" width="10" height="2.5" fill="#ca2628"></rect><text font-size="14.40" x="710.7" y="290.6" fill="#333"><tspan x="710.728" y="290.61999999999995">Communicable,</tspan><tspan x="710.728" y="306.4599999999999">maternal, neonatal,</tspan><tspan x="710.728" y="322.29999999999995">and nutritional</tspan><tspan x="710.728" y="338.13999999999993">diseases</tspan></text></g><g class="legendMark"><rect x="695.728" y="419.25" width="139.27200000000002" height="29.900000000000002" fill="#fff" opacity="0"></rect><rect x="695.728" y="432.95" width="10" height="2.5" fill="#3360a9"></rect><text font-size="14.40" x="710.7" y="430.8" fill="#333"><tspan x="710.728" y="430.77">Non-communicable</tspan><tspan x="710.728" y="446.60999999999996">diseases (NCDs)</tspan></text></g></g><g class="Areas"><rect x="60.824" y="140.4" width="629.904" height="394.9000000000001" opacity="0" fill="rgba(255,255,255,0)"></rect><path stroke-linecap="round" d="M60.8 265.6L85.1 267.6L109.3 267.6L133.5 266L157.7 266.2L182 268.9L206.2 273L230.4 276.5L254.6 279.3L278.9 280.5L303.1 282.8L327.3 285.2L351.5 286.9L375.8 291.7L400 296.8L424.2 300L448.5 305.5L472.7 309.4L496.9 312.6L521.1 316L545.4 318.7L569.6 322.5L593.8 325.1L618 327.5L642.3 329.3L666.5 331.3L690.7 333.2L690.728 535.3000000000001L60.824 535.3000000000001" fill="#3360a9" fill-opacity="0.7" class="World_0-area"></path><path stroke-linecap="round" d="M60.8 169.6L85.1 172.9L109.3 174L133.5 173.3L157.7 174.3L182 177.2L206.2 182.4L230.4 187.2L254.6 191.1L278.9 193.3L303.1 196.7L327.3 200.3L351.5 203.3L375.8 210.2L400 217.3L424.2 222.5L448.5 230.5L472.7 237.1L496.9 242.7L521.1 248.8L545.4 253.9L569.6 260.3L593.8 265.4L618 270.2L642.3 274.3L666.5 278.6L690.7 282.5L690.7 333.2L666.5 331.3L642.3 329.3L618 327.5L593.8 325.1L569.6 322.5L545.4 318.7L521.1 316L496.9 312.6L472.7 309.4L448.5 305.5L424.2 300L400 296.8L375.8 291.7L351.5 286.9L327.3 285.2L303.1 282.8L278.9 280.5L254.6 279.3L230.4 276.5L206.2 273L182 268.9L157.7 266.2L133.5 266L109.3 267.6L85.1 267.6L60.8 265.6" fill="#ca2628" fill-opacity="0.7" class="World_1-area"></path><path stroke-linecap="round" d="M60.8 140.4L85.1 143.2L109.3 145.3L133.5 144.2L157.7 142.7L182 148.5L206.2 154.1L230.4 159.3L254.6 163.3L278.9 165.5L303.1 169.6L327.3 173.8L351.5 177L375.8 184L400 190.5L424.2 196.9L448.5 205.7L472.7 212.8L496.9 217.8L521.1 225.5L545.4 229.9L569.6 237.6L593.8 243.3L618 248.3L642.3 252.5L666.5 257.1L690.7 261.3L690.7 282.5L666.5 278.6L642.3 274.3L618 270.2L593.8 265.4L569.6 260.3L545.4 253.9L521.1 248.8L496.9 242.7L472.7 237.1L448.5 230.5L424.2 222.5L400 217.3L375.8 210.2L351.5 203.3L327.3 200.3L303.1 196.7L278.9 193.3L254.6 191.1L230.4 187.2L206.2 182.4L182 177.2L157.7 174.3L133.5 173.3L109.3 174L85.1 172.9L60.8 169.6" fill="#ffd53e" fill-opacity="0.7" class="World_2-area"></path><path stroke-linecap="round" d="M60.8 265.6L85.1 267.6L109.3 267.6L133.5 266L157.7 266.2L182 268.9L206.2 273L230.4 276.5L254.6 279.3L278.9 280.5L303.1 282.8L327.3 285.2L351.5 286.9L375.8 291.7L400 296.8L424.2 300L448.5 305.5L472.7 309.4L496.9 312.6L521.1 316L545.4 318.7L569.6 322.5L593.8 325.1L618 327.5L642.3 329.3L666.5 331.3L690.7 333.2" stroke="rgb(43, 80, 141)" stroke-opacity="0.7" stroke-width="0.5" fill="none" class="World_0-border"></path><path stroke-linecap="round" d="M60.8 169.6L85.1 172.9L109.3 174L133.5 173.3L157.7 174.3L182 177.2L206.2 182.4L230.4 187.2L254.6 191.1L278.9 193.3L303.1 196.7L327.3 200.3L351.5 203.3L375.8 210.2L400 217.3L424.2 222.5L448.5 230.5L472.7 237.1L496.9 242.7L521.1 248.8L545.4 253.9L569.6 260.3L593.8 265.4L618 270.2L642.3 274.3L666.5 278.6L690.7 282.5" stroke="rgb(169, 32, 33)" stroke-opacity="0.7" stroke-width="0.5" fill="none" class="World_1-border"></path><path stroke-linecap="round" d="M60.8 140.4L85.1 143.2L109.3 145.3L133.5 144.2L157.7 142.7L182 148.5L206.2 154.1L230.4 159.3L254.6 163.3L278.9 165.5L303.1 169.6L327.3 173.8L351.5 177L375.8 184L400 190.5L424.2 196.9L448.5 205.7L472.7 212.8L496.9 217.8L521.1 225.5L545.4 229.9L569.6 237.6L593.8 243.3L618 248.3L642.3 252.5L666.5 257.1L690.7 261.3" stroke="rgb(213, 178, 52)" stroke-opacity="0.7" stroke-width="0.5" fill="none" class="World_2-border"></path></g></g></g><g style="fill: #777;" class="SourcesFooter"><g style="fill: #777;" class="clickable"><text font-size="12.60" x="15.0" y="581.6"><tspan x="15" y="581.58">Source: IHME, Global Burden of Disease</tspan></text></g><text font-size="12.60" x="649.0" y="581.6"><tspan x="649.024" y="581.58"><a target='_blank' style='fill: #777;' href='https://ourworldindata.org'>OurWorldInData.org</a> • <a style="fill: #777;" href="http://creativecommons.org/licenses/by-sa/4.0/deed.en_US" target="_blank">CC BY-SA</a></tspan></text></g></g></svg>
